X: 062098
T: Football by Moonlight
C: Joe Liddy
Z: BB
S: "The Leitrim Fiddler" (Dublin 1981)
N: Uses dotted rhythm
L: 1/8
M: 4/4
R: hornpipe
Q: 1/4 = 160
K: G
dc | BGdG BGAc | BGAG FGAc | BGdG BGAB | cdfe dcAF |
G2 BG dGBA | GBdB cdeg | fdeg fdcA | DFAF G2 EF |
G2 BG dGBA | GABG AGFD | G2 BG dGAG | FDAc BcAF |
G2 BG FGAc | BGAB cdeg | (3fed cA dBcA | DFAF G2 ||
Bc | d2 de dBGB | ABAG FDBA | GBdB ceag | fgef dABc |
dgfe dBGB | cBAB cdef | (3agf ge dBcA | DFAF G2 :|
ef | g2 (3agf gedB | cBAG FD (3DEF | GBdB ceag | fgaf ddcd |
[1 Bdgd ceag | fgaf defa | (3ged cA dBcA | DFAD G2 :|
[2 Bdgd BGAB | ceag fdfa | (3gfe dc BGAF | GEDB, G,4 ||
